X:305
T: Zhai hongling
N: C1802
O: China,Jiangsu Liuhe
S: III, 447]
R: Xiaodiao]
M: 2/4
L: 1/16
K: D
e3fd3B | e3fd3B | A2F2A2B2 | d4
z2B2 | A2F2A2B2 | d6B2 | A2F2A2B2 | d4z4 |
B2B4A2 | FAF4E2 | F4z4 |
F2z2d2z2 | B3dB2A2 | F2z2d2z2 | B3dB2A2 | F3AF2E2 | D4z4 |
f3af2e2 | d8- | d8

@@@ Tune index: 6860
